X: 7850
T: Commodore, The
R: reel
M: 4/4
K: Dmajor
a2 af (3gc'g ge|fd d/d/d ecAb|ad d/d/d bdad|cdef (3gc'g fg|
agfa gfeg|fedf ecAB|cAeA fAef|gece d2 (3efg|
ad d/d/d gd d/d/d|fd d/d/d ecAb|ad d/d/d bdad|cdef g2fg|
agfa gfeg|fedf ecAB|cAeA fAef|gece dBAG|
|:FAde =f2d=f|e=c c/c/c =CEGc|ADFA dedB|ceag f~d3|
FAde =f=Ffd|e=c c/c/c gc e/f/g|aged cAef|1 gece dBAG:|2 gece defg||

